X: 14
T:Jenny Lind
M:2/4
R:polka
L:1/8
K:D
A|:"D"FAGB | "D" Af f/2e/2f | "A7"Ge e/d/e |"D" Fd d/2c/2d | 
"D"FAGB|"D" Af f/2e/2f | "A7"ge e/2g/2f/2e/2|"D" dfd2 :|
K:G
|:"C"gf e/2g/2f/2e/2 |"G" dB  B/2A/2B | "Am"cA A/2G/2A | "Em"BG E2 |
"C"gf e/2g/2f/2e/2 | "G"dB  B/2A/2B | "D7"cA A/2c/2B/2A/2 | "G"GB G2 :|
